assets/images/star-border.svg

<svg width="25" height="23" viewBox="0 0 25 23" fill="none" xmlns="http://www.w3.org/2000/svg">
<path d="M7.49893 21.8507L12.5955 18.9467L17.8368 21.2164L19.1683 19.4532L17.6246 13.6282L21.2933 9.03807L22.2508 6.24977L15.6974 6.4331L12.4966 3.07075L10.3788 1.40404L7.4193 6.66466L2.96431 7.82485L1.63287 9.58804L1.68112 11.3126L6.28085 15.3262L6.40628 19.8102L7.49893 21.8507Z" fill="#FDE509"/>
<path d="M5.81652 6.60013C4.01294 6.85821 -0.282481 7.40748 0.307237 10.1317C0.648795 11.714 2.06977 12.754 3.25733 13.662C4.72152 14.7976 5.60427 15.4374 5.34981 17.4516C5.21563 18.452 5.20298 19.449 5.36626 20.4549C5.81015 23.2801 8.32358 22.7945 10.1001 21.5683C10.9484 20.977 12.4363 19.0944 13.5613 19.6996C14.6454 20.2922 15.5201 21.1259 16.6826 21.6194C17.654 22.049 18.6972 22.1444 19.6135 21.5651C20.3835 21.073 20.4474 19.9776 20.3972 19.1485C20.2631 16.7714 17.4528 14.3723 19.5984 12.3328C20.5065 11.4631 25.834 7.23059 22.6665 5.58892C21.4458 4.94481 20.0295 5.03979 18.6986 5.28466C16.6018 5.68937 15.2844 6.41833 13.8941 3.57805C13.4068 2.5812 12.9233 1.72267 12.0922 0.998446C8.74018 -1.92538 7.63976 6.07849 5.81652 6.60013ZM13.2138 6.31015C13.8809 6.96975 14.6525 7.50185 15.6135 7.55802C17.2374 7.63717 18.7616 7.05469 20.3804 6.95404C23.2939 6.7618 19.6117 9.91008 18.9525 10.4961C17.1586 12.0689 16.2444 13.2018 17.1759 15.5843C17.4093 16.2007 19.7299 20.413 17.829 20.0924C16.3217 19.83 15.1218 18.4794 13.8181 17.7684C11.622 16.5563 9.63738 20.0032 7.90097 20.73C6.63212 21.2638 7.26443 16.3322 7.29411 15.9438C7.35423 15.1946 6.90778 14.2105 6.35374 13.7277C5.1762 12.6947 3.84282 11.8877 2.71775 10.7979C0.814464 8.94096 5.15504 8.55653 6.08325 8.40599C6.09676 8.40561 6.11026 8.40523 6.10987 8.3914C6.17739 8.38951 6.24451 8.37379 6.31164 8.35807C9.07543 7.64402 8.84917 5.35255 10.0014 3.06405C11.1161 0.887329 12.6717 5.77162 13.2138 6.31015Z" fill="#434343"/>
<path d="M8.60529 8.69544C7.97302 9.28066 7.10613 9.20801 6.44259 9.64184C6.29677 9.74281 6.30257 9.95028 6.45381 10.0429C7.22351 10.5059 8.38472 9.98893 9.00582 9.48708C9.85181 8.81283 10.0979 7.94774 10.1904 6.90699C10.1996 6.75446 9.96854 6.70556 9.90451 6.83193C9.6264 7.51798 9.13187 8.19623 8.60529 8.69544Z" fill="#434343"/>
<path d="M8.22622 14.9489C8.03799 15.4663 7.99868 15.9934 8.01416 16.5467C8.02731 17.0169 7.94788 17.559 8.25617 17.9518C8.3125 18.0333 8.42129 18.0579 8.49999 17.9727C8.81439 17.6178 8.76188 17.1902 8.74911 16.7338C8.7317 16.1113 8.68806 15.5173 8.49589 14.9275C8.43839 14.8045 8.27675 14.8229 8.22622 14.9489Z" fill="#434343"/>
<path d="M15.2478 11.375C14.6113 12.2925 14.9285 13.4879 15.373 14.4029C15.4444 14.5393 15.6184 14.4791 15.6554 14.3535C15.9158 13.5157 15.5797 12.6115 16.1533 11.8618C16.7269 11.1121 17.6482 10.7126 18.1246 9.86875C18.1762 9.78425 18.106 9.68932 18.025 9.69159C16.9571 9.67993 15.8719 10.4993 15.2478 11.375Z" fill="#434343"/>
<path d="M15.9514 16.2417C16.0919 16.4315 16.4981 16.4617 16.5297 16.1424C16.5729 15.7536 16.3838 15.2745 16.0015 15.1329C15.9197 15.1075 15.8399 15.1513 15.8013 15.2215C15.6343 15.5307 15.7689 15.9976 15.9514 16.2417Z" fill="#434343"/>
</svg>

<svg width="25" height="23" fill="none" xmlns="http://www.w3.org/2000/svg"><path d="M7.499 21.85l5.096-2.903 5.242 2.27 1.331-1.764-1.543-5.825 3.668-4.59.958-2.788-6.554.183-3.2-3.362-2.118-1.667-2.96 5.26-4.455 1.16-1.331 1.764.048 1.725 4.6 4.013.125 4.484L7.5 21.85z" fill="#FDE509"/><path d="M5.817 6.6c-1.804.258-6.1.807-5.51 3.532.342 1.582 1.763 2.622 2.95 3.53 1.465 1.136 2.347 1.775 2.093 3.79-.134 1-.147 1.997.016 3.003.444 2.825 2.958 2.34 4.734 1.113.848-.591 2.336-2.474 3.461-1.868 1.084.592 1.96 1.426 3.122 1.92.971.429 2.014.524 2.93-.055.77-.492.834-1.587.784-2.417-.134-2.377-2.944-4.776-.799-6.815.909-.87 6.236-5.102 3.069-6.744-1.221-.644-2.638-.55-3.968-.304-2.097.404-3.415 1.133-4.805-1.707-.487-.997-.97-1.855-1.802-2.58C8.74-1.925 7.64 6.078 5.817 6.6zm7.397-.29c.667.66 1.438 1.192 2.4 1.248 1.623.08 3.148-.503 4.766-.604 2.914-.192-.768 2.956-1.427 3.542-1.794 1.573-2.709 2.706-1.777 5.088.233.617 2.554 4.829.653 4.508-1.507-.262-2.707-1.613-4.01-2.324-2.197-1.212-4.182 2.235-5.918 2.962-1.269.534-.637-4.398-.607-4.786.06-.75-.386-1.734-.94-2.216-1.178-1.033-2.511-1.84-3.636-2.93C.814 8.94 5.155 8.557 6.083 8.406c.014 0 .027 0 .027-.015a.946.946 0 00.202-.033c2.763-.714 2.537-3.005 3.69-5.294 1.114-2.177 2.67 2.708 3.212 3.246z" fill="#434343"/><path d="M8.605 8.695c-.632.586-1.499.513-2.162.947a.236.236 0 00.01.4c.77.464 1.932-.053 2.553-.555.846-.674 1.092-1.54 1.184-2.58.01-.153-.221-.201-.285-.075-.279.686-.773 1.364-1.3 1.863zm-.379 6.254c-.188.517-.227 1.044-.212 1.598.013.47-.066 1.012.242 1.405.056.081.165.106.244.02.314-.354.262-.782.25-1.238-.018-.623-.062-1.217-.254-1.807-.058-.122-.22-.104-.27.022zm7.022-3.574c-.637.918-.32 2.113.125 3.028.071.136.245.076.282-.05.26-.837-.075-1.742.498-2.491.574-.75 1.495-1.15 1.972-1.993a.117.117 0 00-.1-.177c-1.068-.012-2.153.807-2.777 1.683zm.703 4.867c.14.19.547.22.579-.1.043-.388-.146-.867-.529-1.01-.081-.024-.161.02-.2.09-.167.309-.032.776.15 1.02z" fill="#434343"/></svg>
